img/icons/Header/intro-card/social-instagram.svg

<svg width="23" height="21" viewBox="0 0 23 21" fill="none" xmlns="http://www.w3.org/2000/svg">
<ellipse cx="11.001" cy="10.5573" rx="4.66708" ry="4.34713" fill="white"/>
<path fill-rule="evenodd" clip-rule="evenodd" d="M6.83708 6.00898C8.04599 4.88295 9.65328 4.25617 11.3629 4.25617C13.0726 4.25617 14.6798 4.88625 15.8887 6.01228C16.6558 6.72674 17.2038 7.58529 17.5021 8.54343H22.3067V2.52843C22.3067 1.1173 21.1358 0.0266113 19.6208 0.0266113H3.16218C1.64719 0.0266113 0.361935 1.1173 0.361935 2.52843V8.54343H5.22363C5.52205 7.58529 6.07004 6.72344 6.83708 6.00898ZM20.478 4.45536C20.478 4.83164 20.1506 5.1367 19.7465 5.1367H17.552C17.1481 5.1367 16.8205 4.83169 16.8205 4.45536V2.41132C16.8205 2.03504 17.148 1.72997 17.552 1.72997H19.7465C20.1505 1.72997 20.478 2.03498 20.478 2.41132V4.45536Z" fill="white"/>
<path fill-rule="evenodd" clip-rule="evenodd" d="M15.8887 14.4402C14.6798 15.5663 13.0726 16.1797 11.3629 16.1797C9.65328 16.1797 8.04599 15.5696 6.83708 14.4436C5.6304 13.3196 4.96497 11.7905 4.96246 10.2468H0.361935V17.8587C0.361935 19.2699 1.64719 20.467 3.16218 20.467H19.6208C21.1358 20.467 22.3067 19.2699 22.3067 17.8587V10.2468H17.7634C17.7609 11.7905 17.0955 13.3163 15.8887 14.4402Z" fill="white"/>
</svg>

<svg width="23" height="21" fill="none" xmlns="http://www.w3.org/2000/svg"><ellipse cx="11.001" cy="10.557" rx="4.667" ry="4.347" fill="#fff"/><path fill-rule="evenodd" clip-rule="evenodd" d="M6.837 6.009c1.209-1.126 2.816-1.753 4.526-1.753s3.317.63 4.526 1.756a5.804 5.804 0 0 1 1.613 2.531h4.805V2.528c0-1.41-1.171-2.501-2.686-2.501H3.162c-1.515 0-2.8 1.09-2.8 2.501v6.015h4.862A5.816 5.816 0 0 1 6.837 6.01Zm13.641-1.554c0 .377-.327.682-.732.682h-2.194c-.404 0-.732-.305-.732-.682V2.411c0-.376.328-.681.732-.681h2.195c.404 0 .731.305.731.681v2.044Zm-4.589 9.985c-1.21 1.126-2.816 1.74-4.526 1.74s-3.317-.61-4.526-1.736C5.63 13.32 4.965 11.79 4.962 10.247h-4.6v7.612c0 1.41 1.285 2.608 2.8 2.608h16.459c1.515 0 2.686-1.197 2.686-2.608v-7.612h-4.544c-.002 1.543-.668 3.07-1.874 4.193Z" fill="#fff"/></svg>
